!!!COM: Anon.
!!!OTL: Verbum Pater Exhibuit
!!!SCA: Folio 223-223'
!!!YOR: from 'Thirty-Five Conductus for Two and Three Voices', pp.29-30
!!!YOR: edited by Janet Knapp, Collegium Musicum No. 6, Yale University (1965)
!!!YOR: from the School of Notre Dame; circa 1170-1240
!!!YOO: Yale University
!!!YOY: 1965
**kern	**kern	**kern
*M6/8	*M6/8	*M6/8
=1	=1	=1
4.f	4.a	8d
.	.	8d
.	.	8c
4.g	8g	8B-
.	16g	8A
.	16f	.
.	8d	8G
=2	=2	=2
4.f	4f	4B-
.	8g	8c
8g	8d	8B-
16g	8c	8A
16f	.	.
8d	8d	8G
=3	=3	=3
4.e	4.e	4.c
16d	8f	8d
16e	.	.
8f	8e	8c
16f	8d	8B-
16d	.	.
=4	=4	=4
4.d	4.g	4c
.	.	8B-
4d	4a	4A
8r	8r	8r
=5	=5	=5
4.g	4.g	4.c
8f	8a	4.d
8e	8a	.
8d	8f	.
=6	=6	=6
4.c	8g	4.e
.	8g	.
.	8f	.
16d	8d	4.d
16e	.	.
16d	8e	.
16B-	.	.
16B-	8f	.
16A	.	.
=7	=7	=7
4.c	4.g	4.c
4d	8f	16d
.	.	16c
.	8e	8B-
8e	8d	8A
=8	=8	=8
4f	4e	4A
8d	8f	8G
4d	4g	4G
8r	8r	8r
=9	=9	=9
4.e	4.e	4.c
4.g	8c	8c
.	8c	8c
.	8B-	8B-
=10	=10	=10
4.a	4.A	4.d
4.f	4.B-	4.f
=11	=11	=11
4.e	4c	4g
.	8A	8a
8g	4.G	4.g
8g	.	.
8e	.	.
=12	=12	=12
4.d	8A	8a
.	8B-	8g
.	8A	8f
16e	4G	4g
16f	.	.
8f	.	.
8d	8r	8r
=13	=13	=13
4.g	4.c	4.g
8f	4.d	4a
8e	.	.
8d	.	8g
=14	=14	=14
4.f	8c	4.f
.	8B-	.
.	8A	.
8e	4.c	4.g
8d	.	.
8c	.	.
=15	=15	=15
4.e	8B-	4.g
.	8A	.
.	8G	.
8d	4.B-	4.f
8c	.	.
8B-	.	.
=16	=16	=16
4.d	8B-	8g
.	8A	8f
.	8G	8e
4d	4G	4g
8r	8r	8r
=17	=17	=17
4.d	4.d	4.a
4B-	4.d	4.g
8G	.	.
=18	=18	=18
4.F	4.f	4.f
4.A	4.e	8e
.	.	8e
.	.	8d
=19	=19	=19
4.c	4.g	4.c
16d	4.f	4.B-
16e	.	.
8d	.	.
8B-	.	.
=20	=20	=20
4A	4f	4.d
8G	8e	.
4G	4g	4d
8r	8r	8r
=21	=21	=21
4.d	4.d	4.g
4.f	8c	4f
.	8B-	.
.	8A	8e
=22	=22	=22
4.f	4.B-	4.d
8g	4.c	4f
8e	.	.
8c	.	8g
=23	=23	=23
4.c	4e	4.g
.	8d	.
8c	4c	8g
8d	.	8f
8e	8B-	8e
=24	=24	=24
4.e	8c	4.g
.	8B-	.
.	8A	.
4e	4A	4a
8r	8r	8r
=25	=25	=25
4.d	4d	4.a
.	8c	.
4.f	4c	16a
.	.	16g
.	.	8a
.	8B-	8b-
=26	=26	=26
8g	4.c	4.g
8g	.	.
8f	.	.
4e	4c	4.a
8d	8d	.
=27	=27	=27
4.e	4.c	4.g
8f	4.B-	8f
8f	.	8e
8d	.	8d
=28	=28	=28
4.e	8d	4e
.	8c	.
.	8A	8f
4d	4G	4g
8r	8r	8r
=29	=29	=29
4.g	4.c	4.e
8f	4.d	8d
8e	.	8e
8d	.	8f
=30	=30	=30
4.c	4.e	4.g
16d	4f	4g
16e	.	.
16d	.	.
16B-	.	.
16B-	8g	8f
16A	.	.
=31	=31	=31
4.c	4.e	4.g
4d	8d	4a
.	8B-	.
8e	8G	8g
=32	=32	=32
4f	4.A	4.f
8f	.	.
4d	4G	4g
8r	8r	8r
=33	=33	=33
16g	4.G	4g
16f#	.	.
8e	.	.
8d	.	8f#
4.c	8A	4e
.	8B	.
.	8c	8f#
=34	=34	=34
4c	4.c	16g
.	.	16f#
.	.	8e
8r	.	8d
4B	4B	4f#
8A	8A	8e
=35	=35	=35
8B	4G	4f#
8c	.	.
8d	8A	8d
4.B	4.B	4.f#
=36	=36	=36
4.B	4.B	4.f#
4.r	4.r	4.r
=37	=37	=37
4.f#	4.A	4d
.	.	8e
4.g	4.G	4d
.	.	8e
=38	=38	=38
8e	4.c	4c
8d	.	.
8c	.	8e
8B	4.d	4d
8A	.	.
8G	.	8e
=39	=39	=39
4A	4e	4f#
8B	8c	8e
4.G	4.d	4.g
=40	=40	=40
4.G	4.d	4.g
4.r	4.r	4.r
=41	=41	=41
4.B	2.B	4.f#
4c	.	4f#
8d	.	8e
=42	=42	=42
4.c	4.c	4.g
4.r	4.r	4.r
=43	=43	=43
4B	2.B	4f#
8A	.	8e
4B	.	4g
8G	.	8f#
=44	=44	=44
4.A	4.A	4.e
4.r	4.r	4.r
=45	=45	=45
4.B	2.B	4.f#
4c	.	4f#
8d	.	8e
=46	=46	=46
4.c	4.c	4.g
4.r	4.r	4.r
=47	=47	=47
4c	8f	4fn
.	8e	.
8B	8d	8g
4d	4.c	4fn
8B	.	8e
=48	=48	=48
4.G	4.d	4.g
4.r	4.r	4.r
=49	=49	=49
4G	8d	8g
.	16e	8f#
.	16d	.
8A	16c	8e
.	16B	.
4A	8A	8d
.	8B	8e
8G	8c	8f#
=50	=50	=50
4.G;	8c	8f#
.	4d;	4g;
4.r	4.r	4.r
==	==	==
*-	*-	*-
!!!ENC: David Huron
!!!YEC: Copyright 1987, David Huron
!!!EEV: 1.0
